UI/Discovery-Sharing/SVG/filter-off_outline_24px.svg

<svg xmlns="http://www.w3.org/2000/svg" width="24" height="24" viewBox="0 0 24 24"><rect width="24" height="24" style="fill:none"/><path d="M15.55,2l-3,3H2l5.26,5.26L4.07,13.44l1.42,1.41L17,3.38ZM8.67,8.84,6.83,7h3.68ZM18,5l-8,8,1,1v9l2-2V14l9-9Z"/></svg>

<svg width="24" height="24" viewBox="0 0 24 24" fill="none" xmlns="http://www.w3.org/2000/svg">
<path d="M15.55 2L12.55 5H2L7.26 10.26L4.07 13.44L5.49 14.85L17 3.38L15.55 2ZM8.67 8.84L6.83 7H10.51L8.67 8.84ZM18 5L10 13L11 14V23L13 21V14L22 5H18Z" fill="#0F1621"/>
</svg>
